Simply-Purple-Circles/scalable/apps/fontforge.svg

<svg xmlns="http://www.w3.org/2000/svg" width="48" height="48" viewBox="0 0 12.7 12.7"><path fill="#963996" d="M6.344.073a6.29 6.29 0 0 0-6.29 6.29 6.29 6.29 0 0 0 6.29 6.288 6.29 6.29 0 0 0 6.29-6.289 6.29 6.29 0 0 0-6.29-6.29zm-.018.936a5.407 5.407 0 0 1 5.407 5.407 5.407 5.407 0 0 1-5.407 5.407A5.407 5.407 0 0 1 .92 6.416 5.407 5.407 0 0 1 6.326 1.01zm2.951 1.376c-1.252 0-1.699 1.466-1.991 2.423H5.829c.146-.56.367-1.992 1.05-1.992.3 0 .146.56.625.56a.347.347 0 0 0 .359-.341c0-.365-.513-.536-.822-.536-1.228 0-1.638 1.352-1.93 2.31h-.855l-.11.22h.903L4 8.69c-.081.333-.333 1.356-.682 1.356-.05 0-.106-.049-.106-.113v-.007c0-.122.113-.211.113-.341 0-.146-.186-.236-.325-.236-.268 0-.398.187-.398.39 0 .268.228.577.69.577.887 0 1.342-1.21 1.53-1.892l.95-3.393 1.46-.003-1.053 3.664c-.081.333-.333 1.355-.683 1.355-.048 0-.106-.048-.106-.113v-.007c0-.122.115-.211.115-.341 0-.146-.188-.235-.326-.235-.268 0-.398.186-.398.389 0 .268.227.577.69.577.887 0 1.342-1.21 1.53-1.892l.95-3.396h.824l.11-.221h-.882c.147-.56.428-2.107 1.111-2.107.3 0 .146.56.626.56a.347.347 0 0 0 .358-.34c0-.366-.512-.537-.821-.537z"/></svg>

<?xml version="1.0" encoding="UTF-8" standalone="no"?>
<svg
   xmlns:dc="http://purl.org/dc/elements/1.1/"
   xmlns:cc="http://creativecommons.org/ns#"
   xmlns:rdf="http://www.w3.org/1999/02/22-rdf-syntax-ns#"
   xmlns:svg="http://www.w3.org/2000/svg"
   xmlns="http://www.w3.org/2000/svg"
   xmlns:sodipodi="http://sodipodi.sourceforge.net/DTD/sodipodi-0.dtd"
   xmlns:inkscape="http://www.inkscape.org/namespaces/inkscape"
   width="48"
   height="48"
   viewBox="0 0 12.7 12.7"
   version="1.1"
   id="svg4"
   sodipodi:docname="fontforge.svg"
   inkscape:version="0.92.4 (5da689c313, 2019-01-14)">
  <metadata
     id="metadata10">
    <rdf:RDF>
      <cc:Work
         rdf:about="">
        <dc:format>image/svg+xml</dc:format>
        <dc:type
           rdf:resource="http://purl.org/dc/dcmitype/StillImage" />
        <dc:title></dc:title>
      </cc:Work>
    </rdf:RDF>
  </metadata>
  <defs
     id="defs8" />
  <sodipodi:namedview
     pagecolor="#ffffff"
     bordercolor="#666666"
     borderopacity="1"
     objecttolerance="10"
     gridtolerance="10"
     guidetolerance="10"
     inkscape:pageopacity="0"
     inkscape:pageshadow="2"
     inkscape:window-width="1087"
     inkscape:window-height="480"
     id="namedview6"
     showgrid="false"
     inkscape:zoom="4.9166667"
     inkscape:cx="2.1355932"
     inkscape:cy="24"
     inkscape:window-x="0"
     inkscape:window-y="25"
     inkscape:window-maximized="0"
     inkscape:current-layer="svg4" />
  <path
     d="m 6.344,0.073 a 6.29,6.29 0 0 0 -6.29,6.29 6.29,6.29 0 0 0 6.29,6.288 6.29,6.29 0 0 0 6.29,-6.289 6.29,6.29 0 0 0 -6.29,-6.29 z M 6.326,1.009 A 5.407,5.407 0 0 1 11.733,6.416 5.407,5.407 0 0 1 6.326,11.823 5.407,5.407 0 0 1 0.92,6.416 5.407,5.407 0 0 1 6.326,1.01 Z m 2.951,1.376 c -1.252,0 -1.699,1.466 -1.991,2.423 H 5.829 c 0.146,-0.56 0.367,-1.992 1.05,-1.992 0.3,0 0.146,0.56 0.625,0.56 A 0.347,0.347 0 0 0 7.863,3.035 C 7.863,2.67 7.35,2.499 7.041,2.499 c -1.228,0 -1.638,1.352 -1.93,2.31 H 4.256 l -0.11,0.22 H 5.049 L 4,8.69 C 3.919,9.023 3.667,10.046 3.318,10.046 3.268,10.046 3.212,9.997 3.212,9.933 V 9.926 C 3.212,9.804 3.325,9.715 3.325,9.585 3.325,9.439 3.139,9.349 3,9.349 c -0.268,0 -0.398,0.187 -0.398,0.39 0,0.268 0.228,0.577 0.69,0.577 0.887,0 1.342,-1.21 1.53,-1.892 L 5.772,5.031 7.232,5.028 6.179,8.692 C 6.098,9.025 5.846,10.047 5.496,10.047 5.448,10.047 5.39,9.999 5.39,9.934 V 9.927 c 0,-0.122 0.115,-0.211 0.115,-0.341 0,-0.146 -0.188,-0.235 -0.326,-0.235 -0.268,0 -0.398,0.186 -0.398,0.389 0,0.268 0.227,0.577 0.69,0.577 0.887,0 1.342,-1.21 1.53,-1.892 L 7.951,5.029 H 8.775 L 8.885,4.808 H 8.003 C 8.15,4.248 8.431,2.701 9.114,2.701 c 0.3,0 0.146,0.56 0.626,0.56 a 0.347,0.347 0 0 0 0.358,-0.34 c 0,-0.366 -0.512,-0.537 -0.821,-0.537 z"
     id="path2"
     inkscape:connector-curvature="0"
     style="fill:#963996" />
</svg>
